SVG_Azure_Grouped/Storage/Storage Account Queue.svg

<?xml version="1.0" encoding="UTF-8" standalone="no"?>
<!-- Generated by Microsoft Visio, SVG Export Storage Account Queue.svg Page-1 -->

<svg
   xmlns:dc="http://purl.org/dc/elements/1.1/"
   xmlns:cc="http://creativecommons.org/ns#"
   xmlns:rdf="http://www.w3.org/1999/02/22-rdf-syntax-ns#"
   xmlns:svg="http://www.w3.org/2000/svg"
   xmlns="http://www.w3.org/2000/svg"
   xmlns:sodipodi="http://sodipodi.sourceforge.net/DTD/sodipodi-0.dtd"
   xmlns:inkscape="http://www.inkscape.org/namespaces/inkscape"
   width="0.78735936in"
   height="0.62993473in"
   viewBox="0 0 56.689782 45.355398"
   xml:space="preserve"
   class="st6"
   version="1.1"
   id="svg48"
   sodipodi:docname="Storage Account Queue.svg"
   style="font-size:12px;overflow:visible;color-interpolation-filters:sRGB;fill:none;fill-rule:evenodd;stroke-linecap:square;stroke-miterlimit:3"
   inkscape:version="0.92.5 (2060ec1f9f, 2020-04-08)"><metadata
   id="metadata52"><rdf:RDF><cc:Work
       rdf:about=""><dc:format>image/svg+xml</dc:format><dc:type
         rdf:resource="http://purl.org/dc/dcmitype/StillImage" /></cc:Work></rdf:RDF></metadata><sodipodi:namedview
   pagecolor="#ffffff"
   bordercolor="#666666"
   borderopacity="1"
   objecttolerance="10"
   gridtolerance="10"
   guidetolerance="10"
   inkscape:pageopacity="0"
   inkscape:pageshadow="2"
   inkscape:window-width="640"
   inkscape:window-height="480"
   id="namedview50"
   showgrid="false"
   inkscape:zoom="1.5612629"
   inkscape:cx="37.795252"
   inkscape:cy="30.225663"
   inkscape:window-x="0"
   inkscape:window-y="0"
   inkscape:window-maximized="0"
   inkscape:current-layer="svg48" />
	<style
   type="text/css"
   id="style2">
	<![CDATA[
		.st1 {fill:url(#grad0-6);stroke:none;stroke-linecap:butt;stroke-width:34}
		.st2 {fill:#773adc;stroke:none;stroke-linecap:butt;stroke-width:34}
		.st3 {fill:#ffffff;stroke:none;stroke-linecap:butt;stroke-width:34}
		.st4 {fill:#ffffff;fill-opacity:0.75;stroke:none;stroke-linecap:butt;stroke-width:34}
		.st5 {fill:#ffffff;fill-opacity:0.5;stroke:none;stroke-linecap:butt;stroke-width:34}
		.st6 {fill:none;fill-rule:evenodd;font-size:12px;overflow:visible;stroke-linecap:square;stroke-miterlimit:3}
	]]>
	</style>

	<defs
   id="Patterns_And_Gradients">
		<linearGradient
   id="grad0-6"
   x1="0"
   y1="99.847908"
   x2="44.518338"
   y2="99.847908"
   gradientTransform="scale(1.2734078,0.78529437)"
   gradientUnits="userSpaceOnUse">
			<stop
   offset="0"
   stop-color="#a67af4"
   stop-opacity="1"
   id="stop4" />
			<stop
   offset="0.775"
   stop-color="#b796f9"
   stop-opacity="1"
   id="stop6" />
		</linearGradient>
	</defs>
	<g
   id="g46"
   transform="translate(-34.000237,-33.9989)">
		<title
   id="title10">Page-1</title>
		<g
   id="group20115-1"
   transform="translate(34,-34.0157)">
			<title
   id="title12">Storage Account Queue.20115</title>
			<g
   id="group20116-2">
				<title
   id="title14">MsPortalFx.base.images-3</title>
				<g
   id="shape20117-3">
					<title
   id="title16">Sheet.20117</title>
					<path
   d="m 0,78.41 h 56.69 v 33.08 a 1.89401,1.88434 0 0 1 -1.89,1.88 H 1.89 A 1.89401,1.88434 0 0 1 0,111.49 Z"
   class="st1"
   id="path18"
   inkscape:connector-curvature="0"
   style="fill:url(#grad0-6);stroke:none;stroke-width:34;stroke-linecap:butt" />
				</g>
				<g
   id="shape20118-7"
   transform="translate(0.0100567,-34.9654)">
					<title
   id="title21">Sheet.20118</title>
					<path
   d="m 1.89,102.98 h 52.89 a 1.89401,1.88434 0 0 1 1.89,1.89 v 8.5 H 0 v -8.5 a 1.89401,1.88434 0 0 1 1.89,-1.89 z"
   class="st2"
   id="path23"
   inkscape:connector-curvature="0"
   style="fill:#773adc;stroke:none;stroke-width:34;stroke-linecap:butt" />
				</g>
				<g
   id="group20119-9"
   transform="translate(6.97599,-4.77256)">
					<title
   id="title26">Sheet.20119</title>
					<g
   id="shape20120-10">
						<title
   id="title28">Sheet.20120</title>
						<path
   d="m 0,112.46 a 0.918532,0.913845 -180 0 0 0.918511,0.91382 L 11.43,113.37 a 0.918532,0.913845 -180 0 0 0.918511,-0.91382 L 12.35,87.83 A 0.918532,0.913845 -180 0 0 11.431489,86.916176 L 0.92,86.91 a 0.918532,0.913845 -180 0 0 -0.918511,0.913824 z"
   class="st3"
   id="path30"
   inkscape:connector-curvature="0"
   style="fill:#ffffff;stroke:none;stroke-width:34;stroke-linecap:butt" />
					</g>
					<g
   id="shape20121-12"
   transform="translate(15.1957)">
						<title
   id="title33">Sheet.20121</title>
						<path
   d="m 0,112.46 a 0.918532,0.913845 -180 0 0 0.918511,0.91382 L 11.43,113.37 a 0.918532,0.913845 -180 0 0 0.918511,-0.91382 L 12.35,87.83 A 0.918532,0.913845 -180 0 0 11.431489,86.916176 L 0.92,86.91 a 0.918532,0.913845 -180 0 0 -0.918511,0.913824 z"
   class="st4"
   id="path35"
   inkscape:connector-curvature="0"
   style="fill:#ffffff;fill-opacity:0.75;stroke:none;stroke-width:34;stroke-linecap:butt" />
					</g>
					<g
   id="shape20122-14"
   transform="translate(30.3947)">
						<title
   id="title38">Sheet.20122</title>
						<path
   d="m 0,112.46 a 0.918532,0.913845 -180 0 0 0.918511,0.91382 L 11.43,113.37 a 0.918532,0.913845 -180 0 0 0.918511,-0.91382 L 12.35,87.83 A 0.918532,0.913845 -180 0 0 11.431489,86.916176 L 0.92,86.91 a 0.918532,0.913845 -180 0 0 -0.918511,0.913824 z"
   class="st5"
   id="path40"
   inkscape:connector-curvature="0"
   style="fill:#ffffff;fill-opacity:0.5;stroke:none;stroke-width:34;stroke-linecap:butt" />
					</g>
				</g>
			</g>
		</g>
	</g>
</svg>

<?xml version="1.0" encoding="UTF-8" standalone="no"?>
<!DOCTYPE svg PUBLIC "-//W3C//DTD SVG 1.1//EN" "http://www.w3.org/Graphics/SVG/1.1/DTD/svg11.dtd">
<!-- Generated by Microsoft Visio, SVG Export Storage Account Queue.svg Page-1 -->
<svg xmlns="http://www.w3.org/2000/svg" xmlns:xlink="http://www.w3.org/1999/xlink" xmlns:ev="http://www.w3.org/2001/xml-events"
		width="1.73185in" height="1.57458in" viewBox="0 0 124.693 113.37" xml:space="preserve" color-interpolation-filters="sRGB"
		class="st6">
	<style type="text/css">
	<![CDATA[
		.st1 {fill:url(#grad0-6);stroke:none;stroke-linecap:butt;stroke-width:34}
		.st2 {fill:#773adc;stroke:none;stroke-linecap:butt;stroke-width:34}
		.st3 {fill:#ffffff;stroke:none;stroke-linecap:butt;stroke-width:34}
		.st4 {fill:#ffffff;fill-opacity:0.75;stroke:none;stroke-linecap:butt;stroke-width:34}
		.st5 {fill:#ffffff;fill-opacity:0.5;stroke:none;stroke-linecap:butt;stroke-width:34}
		.st6 {fill:none;fill-rule:evenodd;font-size:12px;overflow:visible;stroke-linecap:square;stroke-miterlimit:3}
	]]>
	</style>

	<defs id="Patterns_And_Gradients">
		<linearGradient id="grad0-6" x1="0" y1="0" x2="1" y2="0" gradientTransform="rotate(-90 0.5 0.5)">
			<stop offset="0" stop-color="#a67af4" stop-opacity="1"/>
			<stop offset="0.775" stop-color="#b796f9" stop-opacity="1"/>
		</linearGradient>
	</defs>
	<g>
		<title>Page-1</title>
		<g id="group19660-1" transform="translate(34,-34.0157)">
			<title>Storage Account Queue.19660</title>
			<g id="group19661-2">
				<title>MsPortalFx.base.images-3</title>
				<g id="shape19662-3">
					<title>Sheet.19662</title>
					<path d="M0 78.41 L56.69 78.41 L56.69 111.49 A1.89401 1.88434 0 0 1 54.8 113.37 L1.89 113.37 A1.89401 1.88434
								 0 0 1 0 111.49 L0 78.41 Z" class="st1"/>
				</g>
				<g id="shape19663-7" transform="translate(0.0100567,-34.9654)">
					<title>Sheet.19663</title>
					<path d="M1.89 102.98 L54.78 102.98 A1.89401 1.88434 0 0 1 56.67 104.87 L56.67 113.37 L0 113.37 L0 104.87 A1.89401
								 1.88434 0 0 1 1.89 102.98 Z" class="st2"/>
				</g>
				<g id="group19664-9" transform="translate(6.97599,-4.77256)">
					<title>Sheet.19664</title>
					<g id="shape19665-10">
						<title>Sheet.19665</title>
						<path d="M-0 112.46 a0.918532 0.913845 -180 0 0 0.918511 0.913824 L11.43 113.37 a0.918532 0.913845 -180 0
									 0 0.918511 -0.913824 L12.35 87.83 a0.918532 0.913845 -180 0 0 -0.918511 -0.913824 L0.92 86.91
									 a0.918532 0.913845 -180 0 0 -0.918511 0.913824 L0 112.46 Z" class="st3"/>
					</g>
					<g id="shape19666-12" transform="translate(15.1957,0)">
						<title>Sheet.19666</title>
						<path d="M-0 112.46 a0.918532 0.913845 -180 0 0 0.918511 0.913824 L11.43 113.37 a0.918532 0.913845 -180 0
									 0 0.918511 -0.913824 L12.35 87.83 a0.918532 0.913845 -180 0 0 -0.918511 -0.913824 L0.92 86.91
									 a0.918532 0.913845 -180 0 0 -0.918511 0.913824 L0 112.46 Z" class="st4"/>
					</g>
					<g id="shape19667-14" transform="translate(30.3947,0)">
						<title>Sheet.19667</title>
						<path d="M-0 112.46 a0.918532 0.913845 -180 0 0 0.918511 0.913824 L11.43 113.37 a0.918532 0.913845 -180 0
									 0 0.918511 -0.913824 L12.35 87.83 a0.918532 0.913845 -180 0 0 -0.918511 -0.913824 L0.92 86.91
									 a0.918532 0.913845 -180 0 0 -0.918511 0.913824 L0 112.46 Z" class="st5"/>
					</g>
				</g>
			</g>
		</g>
	</g>
</svg>
